X: 2102
T: Çok Kıldı Harâb
C: Dellalzâde İsmail Efendi
O: Turkey
F: http://compmusic.upf.edu/node/140
N: segah--sarki--agir_aksaksemai--cok_kildi--dellalzade_haci_ismail_efendi
N: makam= segah
N: form= sarki
N: usul= agir_aksaksemai = 10/4
M: 10/4
L: 1/16
K: C _1/4B _1/4e ^f 
Q: 1/4=41
%%MIDI tuningsystem comma53
G4 G=fed c3/2B/^AB A2Bc d2cB c2B3/2A/ G2f2 edd2 e2dc c/B/c/d/cB  | 
w:   | 
B4 zG2=f e2dc BAG2 B2c2 c/B/c/d/cB BAG2 A2_7/8B2 A/G/F/=E/FG FG/A/GF  | 
w:   | 
F3/2=E/D2 D2GF G2B^A B4 z2Bc defg/a/ gf2g fgfg g3/2f/f2 f2g2  | 
w:   | 
fee/d/e/f/ edcd3z2 a3/2g/g3/2=f/ f3/2e/e3/2d/ cde2 g3/2f/f3/2e/ e3/2d/d3/2c/ Bdc4c/B/c/d/  | 
w:   | 
cBB4B4g2 f^ef2 z2fe fg_1/4ef dedc BAB2 cdc2 d2cd  | 
w:   | 
e/f/e/d/d4zd2e=f2 gaa3/2g/ fgf2 g2z2 fga_b/c'/ agga gffg feed  | 
w:   | 
=fe/d/d4zd2aa3/2g/ g3/2f/f2 e3/2d/cd e/f/e/d/e2 z2g3/2f/ f3/2e/e3/2d/ d3e d3/2c/Bd  | 
w:   | 
cd/e/dc c2d2 cBz2 Bdc2 ded2 cBz2 Bcde =fee3/2d/ d3/2c/c3/2B/ ^ABAB  | 
w:   | 
c/d/c/B/B6 z2g4gc' b^ab2 z2ba bc'ba gff=e d2e2 f2g3=ab2 agg4d2 cBA/B/c B/A/G4b2c'2c'd'c' bbc'b aa2a2g2a  | 
w:   | 
bab2 a/g/g4zd2 e=f2g aa3/2g/f gf2g2z2f ga_b/c'/a ggfg2fgg3/2f/f2f2fee/d/ e/f/edc d3z2a3/2g/g3/2f/f3/2e/e3/2d/cde2g3/2f/f3/2e/e3/2d/d3/2c/Bdc4c/B/ c/d/cBB4B4g2^f^ef2z2f efg_1/4e fded cBAB2cdc2d2c de/f/e/d/d4z d2e=f2gaa3/2g/fgf2g2z2fga b/c'/agg agff  | 
w:   | 
g=fee dfe/d/d4z d2aa3/2g/g3/2f/f2e3/2d/c de/f/e/d/e2z2g3/2f/f3/2e/e3/2d/d3  | 
w:   | 
ed3/2c/B dcd/e/d cc2d2cBz2Bdc2ded2cBz2Bcd e=fee3/2d/d3/2c/c3/2B/^ABA Bc/d/c/B/B6z2g4g c'b^ab2z2b abc'b ag^ff =ed2e2f2g3=ab2agg4d2cB=A/B/ cB/A/G4b2 c'2c'd' c'bbc' baa2  | 
w:   | 
a2g2 abab2a/g/g4zd2e=f2 gaa3/2g/ fgf2 g2z2 fga_b/c'/ aggf  | 
w:   | 
g2=fg g3/2f/f2 f2fe e/d/e/f/ed cd3 z2a3/2g/ g3/2f/f3/2e/ e3/2d/cd e2g3/2f/ f3/2e/e3/2d/  | 
w:   | 
d3/2c/Bd c4 c/B/c/d/cB B4 ^a2b2 b2ab c'2d'c' b2c'b a2ba g2ag  | 
w:   | 
=f2gf e2fe d2e2 d2c2 dcBc d2ef aggf feed dedc d3/2c/de  | 
w:   | 
dcB^A B4 Bcde =fg^ab a2b2 b2ab c'2d'c' b2c'b a2ba g2ag  | 
w:   | 
=f2gf e2fe d2e2 d2c2 dcBc d2ef aggf feed dedc d3/2c/de  | 
w:   | 
dcB^A B4 z2Bc BAGA |
w:   | 


